src/img/casa seguro.svg

<svg width="104" height="113" viewBox="0 0 104 113" fill="none" xmlns="http://www.w3.org/2000/svg">
<path d="M2 38.5C9.43443 17.2453 29.6656 2 53.4574 2C73.1097 2 90.3326 12.4017 99.9208 28M5.5473 82.5C14.7799 99.4769 32.773 111 53.4574 111C74.1419 111 92.135 99.4769 101.368 82.5" stroke="#EC7000" stroke-width="4" stroke-linecap="round"/>
<path d="M69 49V45C69 41.7 66.3 39 63 39H47C43.7 39 41 41.7 41 45V49C37.7 49 35 51.7 35 55V65C35 68.3 37.7 71 41 71V75H45V71H65V75H69V71C72.3 71 75 68.3 75 65V55C75 51.7 72.3 49 69 49ZM45 45C45 43.9 45.9 43 47 43H63C64.1 43 65 43.9 65 45V50.56C63.78 51.66 63 53.24 63 55V59H47V55C47 53.24 46.22 51.66 45 50.56V45ZM71 65C71 66.1 70.1 67 69 67H41C39.9 67 39 66.1 39 65V55C39 53.9 39.9 53 41 53C42.1 53 43 53.9 43 55V63H67V55C67 53.9 67.9 53 69 53C70.1 53 71 53.9 71 55V65Z" fill="black"/>
</svg>

<svg width="104" height="113" fill="none" xmlns="http://www.w3.org/2000/svg"><path d="M2 38.5C9.434 17.245 29.666 2 53.457 2 73.11 2 90.333 12.402 99.921 28M5.547 82.5C14.78 99.477 32.773 111 53.457 111c20.685 0 38.678-11.523 47.911-28.5" stroke="#EC7000" stroke-width="4" stroke-linecap="round"/><path d="M69 49v-4c0-3.3-2.7-6-6-6H47c-3.3 0-6 2.7-6 6v4c-3.3 0-6 2.7-6 6v10c0 3.3 2.7 6 6 6v4h4v-4h20v4h4v-4c3.3 0 6-2.7 6-6V55c0-3.3-2.7-6-6-6zm-24-4c0-1.1.9-2 2-2h16c1.1 0 2 .9 2 2v5.56c-1.22 1.1-2 2.68-2 4.44v4H47v-4c0-1.76-.78-3.34-2-4.44V45zm26 20c0 1.1-.9 2-2 2H41c-1.1 0-2-.9-2-2V55c0-1.1.9-2 2-2s2 .9 2 2v8h24v-8c0-1.1.9-2 2-2s2 .9 2 2v10z" fill="#000"/></svg>
